X:1
T:Title
%%score 1 { 2 | 3 }
L:1/8
Q:1/4=86
M:6/8
K:D
V:1 treble nm="Drawbar Organ, Soprano"
V:2 treble nm="Choir Pad, One Look at the Cross"
V:3 bass 
V:1
 [FA][FA][=F^G] [^FA] [DF]2 | [DF][DF][DG] [DF] D2 | [FA][FA][GB] [Gc] [Fd]2 | %3
w: By~W.~W.~Rhoads * * * *|||
 [Fd][Gd][Gc] [GB] [FA]2 | [FA][FA][GB] [Gc] [Fd]2 | [Fd][Gd][Gc] [GB] [FA]2 | %6
w: |||
 [FA][GB][DA] [EG] [DF]2 | [CE] D2 AA[^GB] | [Gc] [Fd]2- [Fd]3- | [Fd]3 [Fd][Bd][Ac] | %10
w: ||||
 [GB] [FA]2- [FA]3- | [FA]3 D[DF][EG] | [GB] [FA]2- [FA]3- | [FA]3 [DF][DF][CE] | D [CE]2- [CE]3- | %15
w: |||||
 [CE]3 AA[^GB] | [Gc] [Fd]2- [Fd]3- | [Fd]3 [Fd][Bd][Ac] | [GB] [FA]2- [FA]3- | %19
w: ||||
 [FA]3 [FA][GB][FA] | [EG] [DF]2- [DF]3- | [DF]3 [DF] [DF]2 | [DE] D2- D3- | D3 z3 |] %24
w: |||||
V:2
 DDD D A,2 | A,A,B, A, F,2 | DDD A, A,2 | A,B,C D D2 | DDD[K:bass] A, A,2 | A,B,C[K:treble] D D2 | %6
 DDB,[K:bass] B, A,2 | G, F,2 z3 | z3 A,A,A, | A, A,2 z3 | z3[K:treble] DDD | D D2 z3 | z3 DDD | %13
 D D2 z3 | z3[K:bass] A,A,A, | A, A,2 z3 | z3 A,A,A, | A, A,2 z3 | z3[K:treble] DDD | D D2 z3 | %20
 z3[K:bass] A,A,A, | A, A,2 A, A,2 | G, F,2- F,3- | F,3 z3 |] %24
V:3
 D,D,D, D, D,2 | D,D,D, D, D,2 | D,D,D, D, D,2 | D,G,G, G, D,2 | D,D,D, D, D,2 | D,G,G, G, D,2 | %6
 D,G,,G,, G,, A,,2 | A,, D,2 z3 | z3 D,D,D, | D, D,2 z3 | z3 D,D,D, | D, D,2 z3 | z3 D,D,D, | %13
 D, D,2 z3 | z3 A,,A,,C, | E, A,,2 z3 | z3 D,D,D, | D, D,2 z3 | z3 D,D,D, | D, D,2 z3 | %20
 z3 A,,A,,A,, | A,, A,,2 A,, A,,2 | A,, D,2- D,3- | D,3 z3 |] %24

